!!!OTL: Da baoyunchuan
!!!ARE: Asia, China,ÿHebei Anxin
!! IV, 42
!!!SCT: C1923
!!!YEM: Copyright 1995, estate of Helmut Schaffrath.
**kern
*ICvox
*Ivox
*M2/4
*k[f#c#g#d#]
*E:
{8cc#
8cc#
8cc#
8cc#
=1
8.ee
16cc#
4b
=2
8g#
8b
8cc#
8g#
=3
4f#
4r}
=4
{8b
8b
8b
8b
=5
4ee
8g#
8f#
=6
8e
8f#
8g#
8e
=7
4f#
8f#
8g#}
=8
{8b
8f#
8g#
8b
=9
8f#
8g#
8f#
8c#
=10
4.e
8f#
=11
4e
4r}
=12
{4.f#
8g#
=13
2b
=14
8cc#
8ee
8a
8g#
=15
8f#
8g#
8e
8c#}
=16
{8b
8f#
8g#
8b
=17
8f#
8g#
8f#
8c#
=18
4.e
8f#
=19
4e
4r}
==
!!!AGN: Xiaodiao
!!!AMT: simple duple
!!!AIN: vox
!!!EED: Helmut Schaffrath
!!!EEV: 1.0
*-
